public/assets/images/shake-hands-line.svg

<svg xmlns="http://www.w3.org/2000/svg" viewBox="0 0 24 24" fill="rgba(0,0,0,0.7)"><path d="M11.8611 2.39057C12.8495 1.73163 14.1336 1.71797 15.1358 2.35573L19.291 4.99994H20.9998C21.5521 4.99994 21.9998 5.44766 21.9998 5.99994V14.9999C21.9998 15.5522 21.5521 15.9999 20.9998 15.9999H19.4801C19.5396 16.9472 19.0933 17.9102 18.1955 18.4489L13.1021 21.505C12.4591 21.8907 11.6609 21.8817 11.0314 21.4974C10.3311 22.1167 9.2531 22.1849 8.47104 21.5704L3.33028 17.5312C2.56387 16.9291 2.37006 15.9003 2.76579 15.0847C2.28248 14.7057 2 14.1254 2 13.5109V6C2 5.44772 2.44772 5 3 5H7.94693L11.8611 2.39057ZM4.17264 13.6452L4.86467 13.0397C6.09488 11.9632 7.96042 12.0698 9.06001 13.2794L11.7622 16.2518C12.6317 17.2083 12.7903 18.6135 12.1579 19.739L17.1665 16.7339C17.4479 16.5651 17.5497 16.2276 17.4448 15.9433L13.0177 9.74551C12.769 9.39736 12.3264 9.24598 11.9166 9.36892L9.43135 10.1145C8.37425 10.4316 7.22838 10.1427 6.44799 9.36235L6.15522 9.06958C5.58721 8.50157 5.44032 7.69318 5.67935 7H4V13.5109L4.17264 13.6452ZM14.0621 4.04306C13.728 3.83047 13.3 3.83502 12.9705 4.05467L7.56943 7.65537L7.8622 7.94814C8.12233 8.20827 8.50429 8.30456 8.85666 8.19885L11.3419 7.45327C12.5713 7.08445 13.8992 7.53859 14.6452 8.58303L18.5144 13.9999H19.9998V6.99994H19.291C18.9106 6.99994 18.5381 6.89148 18.2172 6.68727L14.0621 4.04306ZM6.18168 14.5448L4.56593 15.9586L9.70669 19.9978L10.4106 18.7659C10.6256 18.3897 10.5738 17.9178 10.2823 17.5971L7.58013 14.6247C7.2136 14.2215 6.59175 14.186 6.18168 14.5448Z"></path></svg>

<svg fill="rgba(0,0,0,0.7)" viewBox="0 0 24 24"><path d="M11.861 2.39a3 3 0 0 1 3.275-.034L19.29 5H21a1 1 0 0 1 1 1v9a1 1 0 0 1-1 1h-1.52a2.65 2.65 0 0 1-1.285 2.449l-5.093 3.056a2 2 0 0 1-2.07-.008c-.7.62-1.779.688-2.561.073l-5.14-4.039a2 2 0 0 1-.565-2.446A2 2 0 0 1 2 13.51V6a1 1 0 0 1 1-1h4.947zM4.173 13.646l.692-.605a3 3 0 0 1 4.195.24l2.702 2.972a3 3 0 0 1 .396 3.487l5.009-3.005a.66.66 0 0 0 .278-.79l-4.427-6.198a1 1 0 0 0-1.101-.377l-2.486.745a3 3 0 0 1-2.983-.752l-.293-.292A2 2 0 0 1 5.68 7H4v6.51zm9.89-9.602a1 1 0 0 0-1.093.012l-5.4 3.6.292.293a1 1 0 0 0 .995.25l2.485-.745a3 3 0 0 1 3.303 1.13L18.515 14H20V7h-.709a2 2 0 0 1-1.074-.313zM6.181 14.545l-1.616 1.414 5.14 4.039.705-1.232a1 1 0 0 0-.129-1.169L7.58 14.625a1 1 0 0 0-1.398-.08"/></svg>
